usr/share/icons/biglinux-icons-material/scalable/apps/devhelp.svg

<?xml version="1.0" encoding="UTF-8" standalone="no"?>
<svg
   width="24"
   height="24"
   viewBox="0 0 6.349875 6.349875"
   version="1.1"
   id="svg7511"
   sodipodi:docname="zevdocs.svg"
   inkscape:version="1.2.2 (b0a8486541, 2022-12-01)"
   xmlns:inkscape="http://www.inkscape.org/namespaces/inkscape"
   xmlns:sodipodi="http://sodipodi.sourceforge.net/DTD/sodipodi-0.dtd"
   xmlns="http://www.w3.org/2000/svg"
   xmlns:svg="http://www.w3.org/2000/svg">
  <defs
     id="defs7515">
    <radialGradient
       fx="0"
       fy="0"
       cx="0"
       cy="0"
       r="1"
       gradientUnits="userSpaceOnUse"
       gradientTransform="matrix(0,5.8207184,-5.8207184,0,3.174815,0.2645734)"
       spreadMethod="pad"
       id="radialGradient3666-6">
      <stop
         style="stop-color:#fbcfcf;stop-opacity:1;"
         offset="0"
         id="stop3662-7" />
      <stop
         style="stop-color:#ff8080;stop-opacity:1;"
         offset="1"
         id="stop3664-5" />
    </radialGradient>
    <radialGradient
       id="paint0_radial_0_1"
       cx="0"
       cy="0"
       r="1"
       gradientUnits="userSpaceOnUse"
       gradientTransform="matrix(0,2.9103593,-2.9103593,0,-7.4081883,0.2645821)">
      <stop
         stop-color="#6EBBF7"
         id="stop322" />
      <stop
         offset="1"
         stop-color="#2196F3"
         id="stop324" />
    </radialGradient>
  </defs>
  <sodipodi:namedview
     id="namedview7513"
     pagecolor="#ffffff"
     bordercolor="#000000"
     borderopacity="0.25"
     inkscape:showpageshadow="2"
     inkscape:pageopacity="0.0"
     inkscape:pagecheckerboard="0"
     inkscape:deskcolor="#d1d1d1"
     showgrid="false"
     inkscape:zoom="4.8282135"
     inkscape:cx="-41.216073"
     inkscape:cy="36.659522"
     inkscape:window-width="2560"
     inkscape:window-height="998"
     inkscape:window-x="1680"
     inkscape:window-y="0"
     inkscape:window-maximized="1"
     inkscape:current-layer="svg7511" />
  <path
     d="m 2.538065,0.2949075 c 0.031749,0 0.062088,-0.00423 0.091015,-0.012347 0.3802869,-0.025047 0.7605737,-0.023636 1.1398026,0.00282 0.3443042,0.027516 0.6776726,0.1019509 1.0004579,0.2243623 0.5358586,0.2204818 0.9023876,0.6035909 1.1009976,1.1479163 0.111476,0.3280768 0.178855,0.6656785 0.199669,1.0113939 0.02751,0.4356718 0.01799,0.8695797 -0.03034,1.3038407 -0.03704,0.3044419 -0.115708,0.5965361 -0.237062,0.877694 C 5.5778911,5.3384698 5.2127741,5.6746607 4.7086643,5.8591598 4.3005084,5.9970926 3.8803583,6.0701167 3.4475085,6.0771716 2.9624487,6.1032828 2.4816221,6.0658821 2.0050286,5.9681657 1.129804,5.7737886 0.588301,5.2393416 0.384399,4.3655277 0.297619,3.9728937 0.257402,3.5746158 0.265868,3.1721047 0.256368,2.7448988 0.301498,2.3219264 0.402391,1.9056569 0.617228,1.0900507 1.135448,0.5841774 1.9566991,0.3887423 2.1482536,0.3418243 2.3426304,0.3100743 2.5380654,0.2949053 Z"
     style="fill:url(#radialGradient3666-6);fill-rule:evenodd;stroke:none;stroke-width:0.352683;stroke-dasharray:none"
     id="path3668" />
  <path
     id="path334"
     style="opacity:0.727273;mix-blend-mode:normal;fill:#f8f9f9;fill-opacity:1;stroke-width:0.637964;paint-order:stroke fill markers"
     d="M 4.3259452,0.3673381 4.2981571,1.4142488 C 4.2836211,1.961875 4.7347287,2.414893 5.3092001,2.4303029 l 0.74696,0.020037 C 6.0291781,2.20172 5.9787351,1.9570718 5.9045291,1.7166545 5.7205081,1.1643212 5.3641311,0.7691763 4.8343442,0.5332391 4.6680778,0.4646979 4.4986853,0.4100553 4.3259452,0.3673381 Z" />
  <path
     id="circle1009"
     style="fill:#ff8080;fill-opacity:1;stroke-width:0.531281;paint-order:markers stroke fill"
     d="m 4.8822921,3.0137099 a 2.248914,2.248914 0 0 0 -2.2489135,2.248914 2.248914,2.248914 0 0 0 0.151926,0.810787 c 0.219858,0.01428 0.440337,0.01554 0.661962,0.0036 0.432849,-0.0071 0.853241,-0.08014 1.2613965,-0.218073 0.504109,-0.184499 0.8692545,-0.520306 1.0939675,-1.008187 0.121354,-0.281158 0.200149,-0.573525 0.237192,-0.877966 0.02273,-0.204203 0.03611,-0.408086 0.04186,-0.612353 A 2.248914,2.248914 0 0 0 4.8822951,3.0137099 Z" />
  <path
     d="m 5.5374237,4.3251666 a 0.10499791,0.10499791 0 0 0 -0.07554,0.026541 L 5.0535583,4.7148254 a 0.1020813,0.1020813 0 0 0 -0.028291,0.1122895 c -0.028584,0.027125 -0.00758,0.150497 -0.014584,0.1933711 -0.00962,0.052498 -0.1184142,0.076706 -0.2088291,0.072916 -0.1166643,0.00495 -0.2315787,0.02975 -0.3152854,0.1047063 -0.046666,0.041416 -0.4118252,0.6331958 -0.3855757,0.6804449 0.014583,0.026541 0.7720263,-0.3079939 1.0085633,-0.456741 0.042874,-0.026833 0.040541,-0.058916 0.033542,-0.114331 -0.00466,-0.037915 -0.020124,-0.07554 -0.032666,-0.1084979 -0.056291,-0.082832 -0.037915,-0.2056209 8.752e-4,-0.2893277 0.033834,0.00992 0.071457,0.00321 0.1000398,-0.021874 L 5.6196721,4.5249542 a 0.1020813,0.1020813 0 0 0 0.00788,-0.1458304 L 5.610048,4.3595819 A 0.10528958,0.10528958 0 0 0 5.537716,4.3251669"
     fill="#ffffff"
     fill-rule="evenodd"
     opacity="0.35"
     id="path23202"
     style="stroke-width:0.291661" />
  <path
     id="path24152"
     style="fill:#ffffff;fill-opacity:1;stroke-width:0.531281;paint-order:markers stroke fill"
     d="M 4.8549052 4.1769238 C 4.6215707 4.181093 4.3371176 4.2527035 4.3371176 4.5629391 C 4.3371176 4.6481041 4.4164446 4.7169319 4.4911103 4.7169319 C 4.5654841 4.7169319 4.6456198 4.6478796 4.6456198 4.5624224 L 4.6456198 4.485426 C 4.6456198 4.4171772 4.7149618 4.3309165 4.8771257 4.3309165 C 5.0389971 4.3309165 5.1086315 4.4392754 5.1086315 4.5629391 C 5.1086315 4.8715157 4.7996125 4.8715178 4.7996125 5.4889626 L 4.9546388 5.4889626 C 4.9546388 4.955516 5.4171338 4.9948882 5.4171338 4.5629391 C 5.4171338 4.3159029 5.147203 4.1769238 4.8771257 4.1769238 C 4.8697157 4.1769238 4.8624322 4.1767893 4.8549052 4.1769238 z M 4.8771257 5.7194349 A 0.1542886 0.1542886 0 0 0 4.7241664 5.8532743 C 4.8080035 5.8218956 4.8878859 5.7861544 4.9639404 5.7463062 A 0.1542886 0.1542886 0 0 0 4.8771257 5.7194349 z " />
</svg>

<svg xmlns="http://www.w3.org/2000/svg" width="24" height="24" viewBox="0 0 6.35 6.35"><defs><radialGradient id="a" cx="0" cy="0" r="1" fx="0" fy="0" gradientTransform="rotate(90 1.455 1.72) scale(5.82072)" gradientUnits="userSpaceOnUse" spreadMethod="pad"><stop offset="0" style="stop-color:#fbcfcf;stop-opacity:1"/><stop offset="1" style="stop-color:#ff8080;stop-opacity:1"/></radialGradient></defs><path d="M2.538.295A.335.335 0 0 0 2.63.283c.38-.025.76-.024 1.14.002a3.62 3.62 0 0 1 1 .225c.536.22.903.603 1.101 1.148.112.328.18.665.2 1.011.028.436.018.87-.03 1.304a3.166 3.166 0 0 1-.237.878c-.225.487-.59.824-1.094 1.008a4.125 4.125 0 0 1-1.261.218 5.643 5.643 0 0 1-1.443-.109C1.13 5.774.588 5.24.385 4.366a5.025 5.025 0 0 1-.12-1.194c-.009-.427.036-.85.137-1.266C.617 1.09 1.135.584 1.957.389c.191-.047.386-.079.581-.094Z" style="fill:url(#a);fill-rule:evenodd;stroke:none;stroke-width:.352683;stroke-dasharray:none"/><path d="m4.326.367-.028 1.047c-.014.548.437 1 1.011 1.016l.747.02a3.914 3.914 0 0 0-.151-.733A1.899 1.899 0 0 0 4.835.533a3.594 3.594 0 0 0-.51-.166Z" style="opacity:.727273;mix-blend-mode:normal;fill:#f8f9f9;fill-opacity:1;stroke-width:.637964;paint-order:stroke fill markers"/><path d="M4.882 3.014a2.249 2.249 0 0 0-2.249 2.249 2.249 2.249 0 0 0 .152.81c.22.015.44.016.662.004.433-.007.854-.08 1.262-.218.504-.185.869-.52 1.094-1.008.121-.281.2-.574.237-.878.023-.204.036-.408.042-.613a2.249 2.249 0 0 0-1.2-.346Z" style="fill:#ff8080;fill-opacity:1;stroke-width:.531281;paint-order:markers stroke fill"/><path fill="#fff" fill-rule="evenodd" d="M5.537 4.325a.105.105 0 0 0-.075.027l-.408.363a.102.102 0 0 0-.029.112c-.028.027-.007.15-.014.193-.01.053-.119.077-.21.073a.493.493 0 0 0-.314.105c-.047.042-.412.633-.386.68.015.027.772-.307 1.009-.456.042-.027.04-.06.033-.115-.005-.037-.02-.075-.033-.108-.056-.083-.037-.206.001-.29.034.01.072.004.1-.021l.409-.363a.102.102 0 0 0 .008-.146l-.018-.02a.105.105 0 0 0-.072-.034" opacity=".35" style="stroke-width:.291661"/><path d="M4.855 4.177c-.233.004-.518.076-.518.386 0 .085.08.154.154.154s.155-.07.155-.155v-.077c0-.068.069-.154.231-.154s.232.108.232.232c0 .309-.31.309-.31.926h.156c0-.533.462-.494.462-.926 0-.247-.27-.386-.54-.386h-.022zm.022 1.542a.154.154 0 0 0-.153.134c.084-.031.164-.067.24-.107a.154.154 0 0 0-.087-.027z" style="fill:#fff;fill-opacity:1;stroke-width:.531281;paint-order:markers stroke fill"/></svg>
